material/.icons/material/alert-outline.svg

<svg xmlns="http://www.w3.org/2000/svg" viewBox="0 0 24 24"><path d="M12 2L1 21h22M12 6l7.53 13H4.47M11 10v4h2v-4m-2 6v2h2v-2"/></svg>

<?xml version="1.0" encoding="UTF-8"?><!DOCTYPE svg PUBLIC "-//W3C//DTD SVG 1.1//EN" "http://www.w3.org/Graphics/SVG/1.1/DTD/svg11.dtd"><svg xmlns="http://www.w3.org/2000/svg" xmlns:xlink="http://www.w3.org/1999/xlink" version="1.1" id="mdi-alert-outline" width="24" height="24" viewBox="0 0 24 24"><path d="M12,2L1,21H23M12,6L19.53,19H4.47M11,10V14H13V10M11,16V18H13V16" /></svg>
